X: 14303
T: Galician Carol
R: jig
M: 6/8
K: Dmajor
de|:f2d def|a2g eag|fed dcd|1 ecA Ade:|2 e cA A3||
|:g2e ede|f2d dcd|e2c ABc|1 e2 d2 BB:|2 e2 d2 Ad||
|:fAA ABA|A2 G2 Ac|eGG GAG|1 G2 F2 Ad:|2 G2 F2 af||
|:bB/=c/B/A/ Gge|aA/B/A/G/ Ffa|gab efg|1 g2 f2 af:|2 g2 f2 Ad||
|:=fAA A_BA|A2 G2 Ac|eGG GAG|G2 =F2 Ad:|
|:dce ed=f|=feg g=fa|ga=b cde|1 e2 d2 Ad:|2 e2 d2 de||

